icons/svg/tourist/beach2.svg

<?xml version="1.0" encoding="UTF-8" standalone="no"?>
<!-- Created with Inkscape (http://www.inkscape.org/) -->

<svg
   xmlns:dc="http://purl.org/dc/elements/1.1/"
   xmlns:cc="http://creativecommons.org/ns#"
   xmlns:rdf="http://www.w3.org/1999/02/22-rdf-syntax-ns#"
   xmlns:svg="http://www.w3.org/2000/svg"
   xmlns="http://www.w3.org/2000/svg"
   xmlns:sodipodi="http://sodipodi.sourceforge.net/DTD/sodipodi-0.dtd"
   xmlns:inkscape="http://www.inkscape.org/namespaces/inkscape"
   version="1.0"
   width="580"
   height="580"
   id="svg2"
   sodipodi:version="0.32"
   inkscape:version="0.48.4 r9939"
   sodipodi:docname="beach2.svg"
   inkscape:output_extension="org.inkscape.output.svg.inkscape">
  <metadata
     id="metadata10">
    <rdf:RDF>
      <cc:Work
         rdf:about="">
        <dc:format>image/svg+xml</dc:format>
        <dc:type
           rdf:resource="http://purl.org/dc/dcmitype/StillImage" />
        <cc:license
           rdf:resource="http://web.resource.org/cc/PublicDomain" />
        <dc:language>en</dc:language>
      </cc:Work>
    </rdf:RDF>
  </metadata>
  <sodipodi:namedview
     inkscape:window-height="1004"
     inkscape:window-width="1920"
     inkscape:pageshadow="2"
     inkscape:pageopacity="0.0"
     guidetolerance="10.0"
     gridtolerance="10.0"
     objecttolerance="10.0"
     borderopacity="1.0"
     bordercolor="#666666"
     pagecolor="#ffffff"
     id="base"
     showgrid="false"
     inkscape:zoom="0.70710678"
     inkscape:cx="67.249435"
     inkscape:cy="344.71479"
     inkscape:window-x="1680"
     inkscape:window-y="0"
     inkscape:current-layer="svg2"
     inkscape:window-maximized="1" />
  <defs
     id="defs4">
    <inkscape:perspective
       sodipodi:type="inkscape:persp3d"
       inkscape:vp_x="0 : 290 : 1"
       inkscape:vp_y="0 : 1000 : 0"
       inkscape:vp_z="580 : 290 : 1"
       inkscape:persp3d-origin="290 : 193.33333 : 1"
       id="perspective12" />
  </defs>
  <g
     id="g1327">
    <path
       d="M 66.275,1.768 C 24.94,1.768 1.704,23.139 1.704,66.804 L 1.704,516.927 C 1.704,557.771 22.598,579.156 63.896,579.156 L 515.92,579.156 C 557.227,579.156 578.149,558.84 578.149,516.927 L 578.149,66.804 C 578.149,24.203 557.227,1.768 514.627,1.768 C 514.624,1.768 66.133,1.625 66.275,1.768 z"
       style="fill:#111111;stroke:#eeeeee;stroke-width:3.40799999"
       id="path1329" />
  </g>
  <g
     id="g3912">
    <path
       transform="matrix(0.58516299,0,0,0.58516299,215.80682,52.315565)"
       d="m 482,122 a 76,76 0 1 1 -152,0 76,76 0 1 1 152,0 z"
       sodipodi:ry="76"
       sodipodi:rx="76"
       sodipodi:cy="122"
       sodipodi:cx="406"
       id="path4331"
       style="fill:#ffffff;fill-opacity:1;stroke:#ffffff;stroke-width:11.26759911;stroke-linecap:round;stroke-linejoin:round;stroke-miterlimit:4;stroke-opacity:1;stroke-dasharray:none"
       sodipodi:type="arc" />
    <path
       inkscape:connector-curvature="0"
       id="path4337"
       d="m 517.71212,124.35463 31.55238,-0.0601"
       style="fill:none;stroke:#ffffff;stroke-width:13.18676376;stroke-linecap:round;stroke-linejoin:round;stroke-miterlimit:4;stroke-opacity:1;stroke-dasharray:none"
       inkscape:transform-center-x="-140.00927"
       inkscape:transform-center-y="4.73341" />
    <path
       inkscape:connector-curvature="0"
       id="path4333"
       d="m 453.383,185.73184 0,31.55244"
       style="fill:none;stroke:#ffffff;stroke-width:13.18676376;stroke-linecap:round;stroke-linejoin:round;stroke-miterlimit:4;stroke-opacity:1;stroke-dasharray:none" />
    <path
       inkscape:transform-center-y="126.39785"
       inkscape:transform-center-x="-60.403525"
       style="fill:none;stroke:#ffffff;stroke-width:13.18676376;stroke-linecap:round;stroke-linejoin:round;stroke-miterlimit:4;stroke-opacity:1;stroke-dasharray:none"
       d="m 484.71501,181.08281 14.61217,27.965"
       id="path4335"
       inkscape:connector-curvature="0" />
    <path
       inkscape:transform-center-y="77.808665"
       inkscape:transform-center-x="-116.49383"
       style="fill:none;stroke:#ffffff;stroke-width:13.18676376;stroke-linecap:round;stroke-linejoin:round;stroke-miterlimit:4;stroke-opacity:1;stroke-dasharray:none"
       d="m 509.28429,157.73287 26.8468,16.57729"
       id="path4339"
       inkscape:connector-curvature="0" />
    <path
       inkscape:connector-curvature="0"
       id="path4361"
       d="M 484.71501,68.058398 499.32718,40.093399"
       style="fill:none;stroke:#ffffff;stroke-width:13.18676376;stroke-linecap:round;stroke-linejoin:round;stroke-miterlimit:4;stroke-opacity:1;stroke-dasharray:none"
       inkscape:transform-center-x="-60.403525"
       inkscape:transform-center-y="126.39785" />
    <path
       inkscape:connector-curvature="0"
       id="path4363"
       d="m 509.28429,91.40833 26.8468,-16.577282"
       style="fill:none;stroke:#ffffff;stroke-width:13.18676376;stroke-linecap:round;stroke-linejoin:round;stroke-miterlimit:4;stroke-opacity:1;stroke-dasharray:none"
       inkscape:transform-center-x="-116.49383"
       inkscape:transform-center-y="77.808665" />
    <path
       inkscape:connector-curvature="0"
       id="path4367"
       d="m 388.28789,123.64537 -31.55239,0.0601"
       style="fill:none;stroke:#ffffff;stroke-width:13.18676376;stroke-linecap:round;stroke-linejoin:round;stroke-miterlimit:4;stroke-opacity:1;stroke-dasharray:none"
       inkscape:transform-center-x="-140.00927"
       inkscape:transform-center-y="4.73341" />
    <path
       inkscape:connector-curvature="0"
       id="path4371"
       d="m 452.61701,59.630812 0,-31.55244"
       style="fill:none;stroke:#ffffff;stroke-width:13.18676376;stroke-linecap:round;stroke-linejoin:round;stroke-miterlimit:4;stroke-opacity:1;stroke-dasharray:none" />
    <path
       inkscape:transform-center-y="126.39785"
       inkscape:transform-center-x="-60.403525"
       style="fill:none;stroke:#ffffff;stroke-width:13.18676376;stroke-linecap:round;stroke-linejoin:round;stroke-miterlimit:4;stroke-opacity:1;stroke-dasharray:none"
       d="M 421.285,66.917193 406.67283,38.952194"
       id="path4373"
       inkscape:connector-curvature="0" />
    <path
       inkscape:transform-center-y="77.808665"
       inkscape:transform-center-x="-116.49383"
       style="fill:none;stroke:#ffffff;stroke-width:13.18676376;stroke-linecap:round;stroke-linejoin:round;stroke-miterlimit:4;stroke-opacity:1;stroke-dasharray:none"
       d="M 396.71572,90.267128 369.86891,73.689843"
       id="path4375"
       inkscape:connector-curvature="0" />
    <path
       inkscape:connector-curvature="0"
       id="path4385"
       d="m 421.285,181.08281 -14.61217,27.965"
       style="fill:none;stroke:#ffffff;stroke-width:13.18676376;stroke-linecap:round;stroke-linejoin:round;stroke-miterlimit:4;stroke-opacity:1;stroke-dasharray:none"
       inkscape:transform-center-x="-60.403525"
       inkscape:transform-center-y="126.39785" />
    <path
       inkscape:connector-curvature="0"
       id="path4387"
       d="m 396.71572,157.73287 -26.84681,16.57729"
       style="fill:none;stroke:#ffffff;stroke-width:13.18676376;stroke-linecap:round;stroke-linejoin:round;stroke-miterlimit:4;stroke-opacity:1;stroke-dasharray:none"
       inkscape:transform-center-x="-116.49383"
       inkscape:transform-center-y="77.808665" />
  </g>
  <path
     sodipodi:type="arc"
     style="fill:#ffffff;fill-opacity:1;stroke:#ffffff;stroke-width:11.26759911;stroke-linecap:round;stroke-linejoin:round;stroke-miterlimit:4;stroke-opacity:1;stroke-dasharray:none"
     id="path4331-8"
     sodipodi:cx="406"
     sodipodi:cy="122"
     sodipodi:rx="76"
     sodipodi:ry="76"
     d="m 482,122 a 76,76 0 1 1 -152,0 76,76 0 1 1 152,0 z"
     transform="matrix(0.58291298,0,0,0.58291298,-125.67477,138.80145)" />
  <path
     style="fill:none;stroke:#ffffff;stroke-width:57;stroke-linecap:round;stroke-linejoin:round;stroke-miterlimit:4;stroke-opacity:1;stroke-dasharray:none"
     d="m 162.29886,289.31931 65.01502,79.64805 238.91789,-0.89149"
     id="path3822"
     inkscape:connector-curvature="0"
     sodipodi:nodetypes="ccc" />
  <path
     style="color:#000000;fill:none;stroke:#ffffff;stroke-width:44.57423401;stroke-linecap:butt;stroke-linejoin:miter;stroke-miterlimit:4;stroke-opacity:1;stroke-dasharray:none;stroke-dashoffset:0;marker:none;visibility:visible;display:inline;overflow:visible;enable-background:accumulate"
     d="m 246.03506,371.64181 78.08189,-83.00123 63.66417,73.1949"
     id="path3824"
     inkscape:connector-curvature="0"
     sodipodi:nodetypes="ccc" />
  <path
     style="fill:none;stroke:#ffffff;stroke-width:55;stroke-linecap:butt;stroke-linejoin:miter;stroke-miterlimit:4;stroke-opacity:1;stroke-dasharray:none"
     d="M 27.686291,277.23654 175,455.5 l 353.22183,-1"
     id="path3822-4"
     inkscape:connector-curvature="0"
     sodipodi:nodetypes="ccc" />
  <path
     style="font-size:medium;font-style:normal;font-variant:normal;font-weight:normal;font-stretch:normal;text-indent:0;text-align:start;text-decoration:none;line-height:normal;letter-spacing:normal;word-spacing:normal;text-transform:none;direction:ltr;block-progression:tb;writing-mode:lr-tb;text-anchor:start;baseline-shift:baseline;color:#000000;fill:#ffffff;fill-opacity:1;stroke:none;stroke-width:50;marker:none;visibility:visible;display:inline;overflow:visible;enable-background:accumulate;font-family:Sans;-inkscape-font-specification:Sans"
     d="m 154.71875,445.6875 -41.77082,84.71688 46.11149,-0.0919 29,-64 z"
     id="path3824-1"
     inkscape:connector-curvature="0"
     sodipodi:nodetypes="ccccc" />
  <path
     style="font-size:medium;font-style:normal;font-variant:normal;font-weight:normal;font-stretch:normal;text-indent:0;text-align:start;text-decoration:none;line-height:normal;letter-spacing:normal;word-spacing:normal;text-transform:none;direction:ltr;block-progression:tb;writing-mode:lr-tb;text-anchor:start;baseline-shift:baseline;color:#000000;fill:#ffffff;fill-opacity:1;stroke:none;stroke-width:50;marker:none;visibility:visible;display:inline;overflow:visible;enable-background:accumulate;font-family:Sans;-inkscape-font-specification:Sans"
     d="m 509.74799,444.12327 41.5949,84.71688 -45.91729,-0.0919 -28.87786,-64 z"
     id="path3824-1-0"
     inkscape:connector-curvature="0"
     sodipodi:nodetypes="ccccc" />
</svg>

<svg width="580" height="580" viewBox="0 0 580 580" fill="none" xmlns="http://www.w3.org/2000/svg">
<g clip-path="url(#clip0)">
<path d="M66.2751 1.76815C24.9401 1.76815 1.7041 23.1391 1.7041 66.8041V516.927C1.7041 557.771 22.5981 579.156 63.8961 579.156H515.92C557.227 579.156 578.149 558.84 578.149 516.927V66.8041C578.149 24.2031 557.227 1.76815 514.627 1.76815C514.624 1.76815 66.1331 1.62515 66.2751 1.76815Z" fill="#111111" stroke="#EEEEEE" stroke-width="3.408"/>
<path d="M497.855 123.706C497.855 135.501 493.169 146.812 484.829 155.153C476.489 163.493 465.177 168.178 453.383 168.178C441.588 168.178 430.276 163.493 421.936 155.153C413.596 146.812 408.91 135.501 408.91 123.706C408.91 111.911 413.596 100.599 421.936 92.2591C430.276 83.9189 441.588 79.2334 453.383 79.2334C465.177 79.2334 476.489 83.9189 484.829 92.2591C493.169 100.599 497.855 111.911 497.855 123.706V123.706Z" fill="white" stroke="white" stroke-width="6.59338" stroke-linecap="round" stroke-linejoin="round"/>
<path d="M517.712 124.355L549.264 124.295" stroke="white" stroke-width="13.1868" stroke-linecap="round" stroke-linejoin="round"/>
<path d="M453.383 185.732V217.284" stroke="white" stroke-width="13.1868" stroke-linecap="round" stroke-linejoin="round"/>
<path d="M484.715 181.083L499.327 209.048" stroke="white" stroke-width="13.1868" stroke-linecap="round" stroke-linejoin="round"/>
<path d="M509.284 157.733L536.131 174.31" stroke="white" stroke-width="13.1868" stroke-linecap="round" stroke-linejoin="round"/>
<path d="M484.715 68.0587L499.327 40.0938" stroke="white" stroke-width="13.1868" stroke-linecap="round" stroke-linejoin="round"/>
<path d="M509.284 91.4083L536.131 74.8311" stroke="white" stroke-width="13.1868" stroke-linecap="round" stroke-linejoin="round"/>
<path d="M388.288 123.646L356.735 123.706" stroke="white" stroke-width="13.1868" stroke-linecap="round" stroke-linejoin="round"/>
<path d="M452.617 59.6311V28.0786" stroke="white" stroke-width="13.1868" stroke-linecap="round" stroke-linejoin="round"/>
<path d="M421.285 66.9176L406.673 38.9526" stroke="white" stroke-width="13.1868" stroke-linecap="round" stroke-linejoin="round"/>
<path d="M396.716 90.2672L369.869 73.6899" stroke="white" stroke-width="13.1868" stroke-linecap="round" stroke-linejoin="round"/>
<path d="M421.285 181.083L406.673 209.048" stroke="white" stroke-width="13.1868" stroke-linecap="round" stroke-linejoin="round"/>
<path d="M396.716 157.733L369.869 174.31" stroke="white" stroke-width="13.1868" stroke-linecap="round" stroke-linejoin="round"/>
<path d="M155.289 209.917C155.289 221.666 150.622 232.934 142.314 241.242C134.006 249.551 122.737 254.218 110.988 254.218C99.2385 254.218 87.9702 249.551 79.6621 241.242C71.354 232.934 66.6865 221.666 66.6865 209.917C66.6865 198.167 71.354 186.899 79.6621 178.591C87.9702 170.283 99.2385 165.615 110.988 165.615C122.737 165.615 134.006 170.283 142.314 178.591C150.622 186.899 155.289 198.167 155.289 209.917V209.917Z" fill="white" stroke="white" stroke-width="6.56803" stroke-linecap="round" stroke-linejoin="round"/>
<path d="M162.299 289.319L227.314 368.967L466.232 368.076" stroke="white" stroke-width="57" stroke-linecap="round" stroke-linejoin="round"/>
<path d="M246.035 371.642L324.117 288.641L387.781 361.836" stroke="white" stroke-width="44.5742"/>
<path d="M27.6865 277.236L175 455.5L528.222 454.5" stroke="white" stroke-width="55"/>
<path d="M154.719 445.688L112.948 530.404L159.06 530.312L188.06 466.312L154.719 445.688Z" fill="white"/>
<path d="M509.748 444.123L551.343 528.84L505.426 528.748L476.548 464.748L509.748 444.123Z" fill="white"/>
</g>
<defs>
<clipPath id="clip0">
<path d="M0 0H580V580H0V0Z" fill="white"/>
</clipPath>
</defs>
</svg>
